wp-content/themes/sayenko-ssclub/public/images/hamburger.svg

<svg height="36" viewBox="0 0 36 36" width="36" xmlns="http://www.w3.org/2000/svg"><g fill-rule="evenodd"><path d="m0 24.8275862 11.1724138 11.1724138h-11.1724138z"/><path d="m12.4137931 24.8275862 11.1724138 11.1724138h-11.1724138z"/><path d="m0 12.4137931 11.1724138 11.1724138h-11.1724138z"/><path d="m12.4137931 12.4137931 11.1724138 11.1724138h-11.1724138z"/><path d="m0 0 11.1724138 11.1724138h-11.1724138z"/><path d="m12.4137931 0 11.1724138 11.1724138h-11.1724138z"/><path d="m24.8275862 24.8275862 11.1724138 11.1724138h-11.1724138z"/><path d="m24.8275862 12.4137931 11.1724138 11.1724138h-11.1724138z"/><path d="m24.8275862 0 11.1724138 11.1724138h-11.1724138z"/></g></svg>

<svg height="36" viewBox="0 0 36 36" width="36" xmlns="http://www.w3.org/2000/svg"><path d="M0 24.828L11.172 36H0zm12.414 0L23.586 36H12.414zM0 12.414l11.172 11.172H0zm12.414 0l11.172 11.172H12.414zM0 0l11.172 11.172H0zm12.414 0l11.172 11.172H12.414zm12.414 24.828L36 36H24.828zm0-12.414L36 23.586H24.828zm0-12.414L36 11.172H24.828z" fill-rule="evenodd"/></svg>
